public/images/country/country-05.svg

<svg width="21" height="21" viewBox="0 0 21 21" fill="none" xmlns="http://www.w3.org/2000/svg">
<g clip-path="url(#clip0_1589_35170)">
<path d="M10.875 20.5C16.3978 20.5 20.875 16.0228 20.875 10.5C20.875 4.97715 16.3978 0.5 10.875 0.5C5.35215 0.5 0.875 4.97715 0.875 10.5C0.875 16.0228 5.35215 20.5 10.875 20.5Z" fill="#F0F0F0"/>
<path d="M10.875 20.4993C15.1746 20.4993 18.84 17.7856 20.253 13.9775H1.49695C2.90988 17.7856 6.57531 20.4993 10.875 20.4993Z" fill="black"/>
<path d="M10.875 0.50061C6.57531 0.50061 2.90988 3.21436 1.49695 7.02237H20.253C18.84 3.21436 15.1746 0.50061 10.875 0.50061Z" fill="#D80027"/>
</g>
<defs>
<clipPath id="clip0_1589_35170">
<rect x="0.875" y="0.5" width="20" height="20" rx="10" fill="white"/>
</clipPath>
</defs>
</svg>

<svg xmlns="http://www.w3.org/2000/svg" width="21" height="21" fill="none" viewBox="0 0 21 21"><g clip-path="url(#a)"><path fill="#f0f0f0" d="M10.875 20.5c5.523 0 10-4.477 10-10s-4.477-10-10-10-10 4.477-10 10 4.477 10 10 10"/><path fill="#000" d="M10.875 20.5c4.3 0 7.965-2.714 9.378-6.523H1.497a10 10 0 0 0 9.378 6.522"/><path fill="#d80027" d="M10.875.5c-4.3 0-7.965 2.714-9.378 6.522h18.756C18.84 3.214 15.175.501 10.875.501"/></g><defs><clipPath id="a"><rect width="20" height="20" x=".875" y=".5" fill="#fff" rx="10"/></clipPath></defs></svg>
